public/assets/svg/components/popover-bottom.svg

<?xml version="1.0" encoding="utf-8"?>
<!-- Generator: Adobe Illustrator 24.2.1, SVG Export Plug-In . SVG Version: 6.00 Build 0)  -->
<svg version="1.1" id="Layer_1" xmlns="http://www.w3.org/2000/svg" xmlns:xlink="http://www.w3.org/1999/xlink" x="0px" y="0px"
	 viewBox="0 0 890 500" style="enable-background:new 0 0 890 500;" xml:space="preserve">
<style type="text/css">
	.st0{fill:#F8FAFD;}
	.st1{fill:#377dff;}
	.st2{fill:#FFFFFF;stroke:#BDC5D1;stroke-width:4;}
	.st3{fill:none;stroke:#BDC5D1;stroke-width:4;}
	.st4{fill:#BDC5D1;}
</style>
<rect class="st0" width="890" height="500"/>
<path class="st1" d="M495,105.7c0,27.7-22.4,50-50,50s-50-22.3-50-50c0-27.6,22.4-50,50-50C472.7,55.7,495,78.1,495,105.7z
	 M446.3,72.2c-11,0-18,4.6-23.5,12.8c-0.7,1-0.4,2.5,0.5,3.2l7,5.3c1,0.8,2.6,0.6,3.4-0.4c3.6-4.6,6-7.2,11.6-7.2
	c4.1,0,9.2,2.7,9.2,6.6c0,3-2.5,4.6-6.6,6.9c-4.7,2.7-11,6-11,14.2v0.8c0,1.3,1.1,2.4,2.4,2.4h11.3c1.3,0,2.4-1.1,2.4-2.4v-0.3
	c0-5.8,16.7-6,16.7-21.5C469.9,81.1,457.7,72.2,446.3,72.2L446.3,72.2z M445,122.2c-5.1,0-9.3,4.1-9.3,9.3c0,5.1,4.1,9.3,9.3,9.3
	s9.3-4.1,9.3-9.3C454.3,126.4,450.1,122.2,445,122.2z"/>
<path class="st2" d="M243.6,222.5h405c5,0,9,4,9,9v208c0,5-4,9-9,9h-405c-5,0-9-4-9-9v-208C234.6,226.5,238.6,222.5,243.6,222.5z"/>
<line class="st3" x1="235.6" y1="290.5" x2="658.4" y2="290.5"/>
<path class="st4" d="M270.6,247.5h355c5,0,9,4,9,9l0,0c0,5-4,9-9,9h-355c-5,0-9-4-9-9l0,0C261.6,251.5,265.6,247.5,270.6,247.5z"/>
<path class="st4" d="M264.6,317.5h311c5,0,9,4,9,9l0,0c0,5-4,9-9,9h-311c-5,0-9-4-9-9l0,0C255.6,321.5,259.6,317.5,264.6,317.5z"/>
<path class="st4" d="M264.6,361.5h239c5,0,9,4,9,9l0,0c0,5-4,9-9,9h-239c-5,0-9-4-9-9l0,0C255.6,365.5,259.6,361.5,264.6,361.5z"/>
<path class="st4" d="M264.6,405.5h334c5,0,9,4,9,9l0,0c0,5-4,9-9,9h-334c-5,0-9-4-9-9l0,0C255.6,409.5,259.6,405.5,264.6,405.5z"/>
<path class="st2" d="M448.8,196l25.9,26.5l0,0h-56.1c-0.9,0-1.3-1.1-0.7-1.7l24.3-24.8C444,194.1,447,194.1,448.8,196z"/>
</svg>

<svg width="890" height="500" viewBox="0 0 890 500" fill="none" xmlns="http://www.w3.org/2000/svg">
<path d="M890 0H0V500H890V0Z" fill="#F8FAFD"/>
<path d="M495 105.7C495 133.4 472.6 155.7 445 155.7C417.4 155.7 395 133.4 395 105.7C395 78.1 417.4 55.7 445 55.7C472.7 55.7 495 78.1 495 105.7ZM446.3 72.2C435.3 72.2 428.3 76.8 422.8 85C422.1 86 422.4 87.5 423.3 88.2L430.3 93.5C431.3 94.3 432.9 94.1 433.7 93.1C437.3 88.5 439.7 85.9 445.3 85.9C449.4 85.9 454.5 88.6 454.5 92.5C454.5 95.5 452 97.1 447.9 99.4C443.2 102.1 436.9 105.4 436.9 113.6V114.4C436.9 115.7 438 116.8 439.3 116.8H450.6C451.9 116.8 453 115.7 453 114.4V114.1C453 108.3 469.7 108.1 469.7 92.6C469.9 81.1 457.7 72.2 446.3 72.2ZM445 122.2C439.9 122.2 435.7 126.3 435.7 131.5C435.7 136.6 439.8 140.8 445 140.8C450.2 140.8 454.3 136.7 454.3 131.5C454.3 126.4 450.1 122.2 445 122.2Z" fill="#377dff"/>
<path d="M243.6 222.5H648.6C653.6 222.5 657.6 226.5 657.6 231.5V439.5C657.6 444.5 653.6 448.5 648.6 448.5H243.6C238.6 448.5 234.6 444.5 234.6 439.5V231.5C234.6 226.5 238.6 222.5 243.6 222.5Z" fill="white" stroke="#BDC5D1" stroke-width="4"/>
<path d="M235.6 290.5H658.4" stroke="#BDC5D1" stroke-width="4"/>
<path d="M270.6 247.5H625.6C630.6 247.5 634.6 251.5 634.6 256.5C634.6 261.5 630.6 265.5 625.6 265.5H270.6C265.6 265.5 261.6 261.5 261.6 256.5C261.6 251.5 265.6 247.5 270.6 247.5Z" fill="#BDC5D1"/>
<path d="M264.6 317.5H575.6C580.6 317.5 584.6 321.5 584.6 326.5C584.6 331.5 580.6 335.5 575.6 335.5H264.6C259.6 335.5 255.6 331.5 255.6 326.5C255.6 321.5 259.6 317.5 264.6 317.5Z" fill="#BDC5D1"/>
<path d="M264.6 361.5H503.6C508.6 361.5 512.6 365.5 512.6 370.5C512.6 375.5 508.6 379.5 503.6 379.5H264.6C259.6 379.5 255.6 375.5 255.6 370.5C255.6 365.5 259.6 361.5 264.6 361.5Z" fill="#BDC5D1"/>
<path d="M264.6 405.5H598.6C603.6 405.5 607.6 409.5 607.6 414.5C607.6 419.5 603.6 423.5 598.6 423.5H264.6C259.6 423.5 255.6 419.5 255.6 414.5C255.6 409.5 259.6 405.5 264.6 405.5Z" fill="#BDC5D1"/>
<path d="M448.8 196L474.7 222.5H418.6C417.7 222.5 417.3 221.4 417.9 220.8L442.2 196C444 194.1 447 194.1 448.8 196Z" fill="white" stroke="#BDC5D1" stroke-width="4"/>
</svg>
